X:1
T:Title
%%score { 1 | ( 2 3 ) }
L:1/8
M:4/4
K:D
V:1 treble nm="Grand Piano"
V:2 bass 
V:3 bass 
V:1
 z4 z2[Q:1/4=100] [FA]2 | [FA]2 [DF]>[EG] [FA] [Fd]2 [GB] | [FA]2 [DF]>[EG] [FA]3 [DF] | %3
 [EG]2 [CE]>[DF] [EG] [Ec]2 [DB] | [CA]2 [CA]>[EG] [DF]3 [FA] | [FA]2 [DF]>[EG] [FA] [Fd]2 [GB] | %6
 [FA]2 [DF]>[EG] [FA]3 F | E2 F>[E^G] [EA] [Ee]2 [Fd] |[M:7/8] [Ec]2 [^Gc]>[GB] A3 |[M:1/8] A | %10
[M:4/4] [Fd]2 [Fd]>[GB] [FA]3 [EG] | [DF]2 [DF]>[EG] [GB] [FA]2 [FA] | [Fd]2 [Fd]>[GB] [FA]3 [FA] | %13
 [GB]A[A,EG][A,DF] [A,DF][K:bass] [A,CE]2 [G,CE] | %14
 [F,D]2[K:treble] [A,DF]>[A,EG] [A,FA] [Fd]2 [GB] | [FA]2 [DF]>[EG] [FA]3 [FA] | %16
 [GB]2 [Gc]>[Gc] [Fd] [Fd]2 e |[M:3/4] d2 [Gc]>[Gc] [Fd]2 |] %18
V:2
 z4 z2 [D,A,]2 | [D,A,]2 [D,A,]>[D,A,] [D,D] [D,D]2 [D,D] | [D,D]2 [D,A,]>[D,A,] [D,D]3 [D,A,] | %3
 [A,,A,]2 [A,,A,]>[A,,A,] [A,,A,] [A,,A,]2 [A,,A,] | [A,,A,]2 [A,,A,]>[A,,A,] [D,A,]3 [D,D] | %5
 [D,D]2 [D,A,]>[D,A,] [D,A,] [D,A,]2 [D,D] | [D,D]2 [D,A,]>[D,A,] [D,D]3 [D,A,D] | %7
 [E,A,C]2 [E,A,D]>[D,B,] [C,A,] [C,A,]2 [D,A,] |[M:7/8] [E,A,]2 [E,E]>[E,D] [A,C]3 |[M:1/8] A, | %10
[M:4/4] [D,A,]2 [D,A,]>[D,D] [D,D]3 [D,A,] | [D,A,]2 [D,A,]>[D,A,] [D,D] [D,D]2 [D,D] | %12
 [D,A,]2 [D,A,]>[D,D] [D,D]3 [D,D] | [D,D]2 z2 z4 | D,2 D,>D, D, [D,A,]2 [D,A,] | %15
 [D,D]2 [D,A,]>[D,A,] [D,A,]3 [D,D] | [G,D]2 [E,A,]>[E,A,] [D,A,] [D,A,]2[K:treble] [G,B,G] | %17
[M:3/4] [A,F]2[K:bass] [A,,A,]>[A,,A,] [D,A,]2 |] %18
V:3
 x8 | x8 | x8 | x8 | x8 | x8 | x8 | x8 |[M:7/8] x7 |[M:1/8] x |[M:4/4] x8 | x8 | x8 | %13
 z FD,D, A,, A,,2 A,, | x8 | x8 | x7[K:treble] x |[M:3/4] x2[K:bass] x4 |] %18

